X:7
T:Indian Queen
C:Wm Mittell MS no 48
M:4/4
L:1/8
Z:abc2nwc
K:D
DD DE FD FA|BA B/2c/2d A3f|ed df ed dA|Bc dF F2E2|
DD DE FD FA|BA B/2c/2d A3f|ed df ed dA|B2c2d2z:|
|:a/2f/2|dd cd ef/2g/2 fa/2f/2|dd cd ef/2g/2 f2|
b2a/2g/2f/2e/2 a2g/2f/2e/2d/2|c/2d/2e/2f/2 g/2f/2e/2d/2 e/2d/2c/2B/2 A/2G/2F/2E/2|
DD DE FD FA|BA B/2c/2d A3f|ed df ed dA|B2c2d4:|
